packages/components/src/components/icon/underlying/ic-underlying-OTC_AS51.svg

<?xml version="1.0" encoding="UTF-8"?>
<svg width="32px" height="32px" viewBox="0 0 32 32" version="1.1" xmlns="http://www.w3.org/2000/svg" xmlns:xlink="http://www.w3.org/1999/xlink">
    <!-- Generator: Sketch 64 (93537) - https://sketch.com -->
    <title>assets/otc/ic-otcaustralian</title>
    <desc>Created with Sketch.</desc>
    <defs>
        <rect id="path-1" x="0" y="0" width="24" height="16" rx="2"></rect>
    </defs>
    <g id="assets/otc/ic-otcaustralian" stroke="none" stroke-width="1" fill="none" fill-rule="evenodd">
        <g id="assets/otc/ic-otc">
            <g id="assets/flags/normal/ic-australia-aud" transform="translate(4.000000, 8.000000)">
                <g id="Group">
                    <g id="atoms/icons/flags/ic-australia-aud">
                        <mask id="mask-2" fill="white">
                            <use xlink:href="#path-1"></use>
                        </mask>
                        <use id="bg" fill="#0D47A1" fill-rule="nonzero" xlink:href="#path-1"></use>
                        <path d="M0.4138125,7.98685714 L1.13259375,7.98685714 L4.9655625,5.43571429 L4.9655625,7.98685714 L7.03453125,7.98685714 L7.03453125,5.43571429 L10.8674531,7.98685714 L11.5862344,7.98685714 C11.81475,7.98685714 12.0000469,7.79861905 12.0000469,7.56647619 L12.0000469,7.23304762 L8.71153125,5.04433333 L12.0000469,5.04433333 L12.0000469,2.94252381 L8.71148438,2.94252381 L12.0000469,0.753809524 L12.0000469,0.420380952 C12.0000469,0.188190476 11.8147031,0 11.5861875,0 L10.8674063,0 L7.0344375,2.55114286 L7.0344375,0 L4.96546875,0 L4.96546875,2.55114286 L1.2583125,0.0837142857 C0.82546875,0.221809524 0.46359375,0.521952381 0.240609375,0.913904762 L3.2885625,2.94252381 L0,2.94252381 L0,5.04433333 L3.28851563,5.04433333 L0,7.23304762 L0,7.56647619 C0,7.79861905 0.185203125,7.98685714 0.4138125,7.98685714 Z" id="Shape" fill="#FFFFFF" fill-rule="nonzero" mask="url(#mask-2)"></path>
                        <path d="M6.12520312,10.2788095 L6.43753125,11.3262857 L7.43845312,10.9212857 C7.52385937,10.8867143 7.60148437,10.9856667 7.54935937,11.0625238 L6.93792187,11.9636667 L7.87364062,12.5060952 C7.95346875,12.552381 7.92576562,12.6757143 7.83407812,12.6822381 L6.75928125,12.7584762 L6.92526562,13.8398571 C6.93942187,13.9321429 6.82720312,13.9870476 6.76504687,13.9182381 L6.03623437,13.1121429 L5.30742187,13.9182381 C5.24526562,13.987 5.13304687,13.9320952 5.14720312,13.8398571 L5.3131875,12.7584762 L4.23839062,12.6822381 C4.14670312,12.6757143 4.11895312,12.552381 4.19882812,12.5060952 L5.13454687,11.9636667 L4.52310937,11.0625238 C4.47098437,10.9856667 4.54860937,10.8867143 4.63401562,10.9212857 L5.6349375,11.3262857 L5.94726562,10.2788095 C5.97403125,10.1894286 6.09857812,10.1894286 6.12520312,10.2788095 Z M18.4349531,11.8028571 L18.5875312,12.3145238 L19.0764375,12.1166667 C19.1181094,12.0998095 19.1560781,12.1480952 19.1305781,12.1856667 L18.8319375,12.6259048 L19.2890156,12.8909048 C19.3280156,12.9134762 19.3144687,12.9737619 19.2696562,12.9769048 L18.7446562,13.0141429 L18.8257031,13.542381 C18.8326406,13.5874762 18.7777969,13.6142857 18.7474219,13.5806667 L18.3914062,13.1869048 L18.0353906,13.5806667 C18.0050156,13.6142381 17.9502187,13.5874286 17.9571094,13.542381 L18.0381562,13.0141429 L17.5131562,12.9769048 C17.4683437,12.9737619 17.4547969,12.9134762 17.4937969,12.8909048 L17.950875,12.6259048 L17.6522344,12.1856667 C17.6267344,12.1480952 17.6647031,12.0998095 17.706375,12.1166667 L18.1953281,12.3145238 L18.3479062,11.8028571 C18.3610781,11.7592381 18.4219687,11.7592381 18.4349531,11.8028571 Z M19.6153594,7.67795238 C19.6312031,7.62966667 19.6984687,7.62966667 19.7144062,7.67795238 L19.7144062,7.67795238 L19.8368906,8.05109524 L20.2240312,8.05414286 C20.2741406,8.05457143 20.2949531,8.11947619 20.2545937,8.1497619 L20.2545937,8.1497619 L19.9431094,8.38342857 L20.0599219,8.75842857 C20.0750156,8.80695238 20.0206406,8.84709524 19.9798594,8.81752381 L19.9798594,8.81752381 L19.6648594,8.58880952 L19.3498594,8.81752381 C19.309125,8.84714286 19.2547031,8.807 19.2697969,8.75842857 L19.2697969,8.75842857 L19.3866094,8.38342857 L19.0751719,8.1497619 C19.0348125,8.11952381 19.055625,8.05457143 19.1057344,8.05414286 L19.1057344,8.05414286 L19.492875,8.05109524 L19.6153594,7.67795238 Z M15.0329062,6.75852381 L15.1854844,7.27019048 L15.6744375,7.07238095 C15.7161094,7.05552381 15.7540781,7.10380952 15.7285781,7.14138095 L15.4299375,7.58161905 L15.8870156,7.84661905 C15.9260156,7.86919048 15.9124687,7.92947619 15.8676562,7.93261905 L15.3426562,7.96985714 L15.42375,8.49809524 C15.4306875,8.54319048 15.3758437,8.57 15.3454687,8.53638095 L14.9894531,8.14261905 L14.6334375,8.53638095 C14.6030625,8.56995238 14.5482656,8.54314286 14.5551562,8.49809524 L14.63625,7.96985714 L14.11125,7.93261905 C14.0664375,7.92942857 14.0528906,7.86919048 14.0918906,7.84661905 L14.5489687,7.58161905 L14.2503281,7.14138095 C14.2248281,7.10380952 14.2627969,7.05552381 14.3044687,7.07238095 L14.7934219,7.27019048 L14.946,6.75852381 C14.9590312,6.71485714 15.019875,6.71485714 15.0329062,6.75852381 Z M21.6535781,5.07704762 L21.8061563,5.58871429 L22.2951094,5.39090476 C22.3367813,5.37404762 22.37475,5.42233333 22.34925,5.45990476 L22.0506094,5.90014286 L22.5076875,6.16514286 C22.5466875,6.18771429 22.5331406,6.248 22.4883281,6.25114286 L21.9633281,6.28838095 L22.0444219,6.81661905 C22.0513594,6.86171429 21.9965156,6.88852381 21.9661406,6.85490476 L21.610125,6.46114286 L21.2541094,6.85490476 C21.2237344,6.88847619 21.1689375,6.86166667 21.175875,6.81661905 L21.2569688,6.28838095 L20.7319688,6.25114286 C20.6871563,6.24795238 20.6736094,6.18771429 20.7126094,6.16514286 L21.1696875,5.90014286 L20.8710469,5.45990476 C20.8455469,5.42233333 20.8835156,5.37404762 20.9251875,5.39090476 L21.4141406,5.58871429 L21.5667188,5.07704762 C21.5797031,5.03342857 21.6405469,5.03342857 21.6535781,5.07704762 Z M18.4349531,2.83114286 L18.5875312,3.34280952 L19.0764375,3.145 C19.1181094,3.12814286 19.1560781,3.17642857 19.1305781,3.214 L18.8319375,3.6542381 L19.2890156,3.9192381 C19.3280156,3.94180952 19.3144687,4.00209524 19.2696562,4.0052381 L18.7446562,4.04247619 L18.8257031,4.57071429 C18.8326406,4.61580952 18.7777969,4.64261905 18.7474219,4.609 L18.3914062,4.2152381 L18.0353906,4.609 C18.0050156,4.64257143 17.9502187,4.6157619 17.9571094,4.57071429 L18.0381562,4.04247619 L17.5131562,4.0052381 C17.4683437,4.00204762 17.4547969,3.94180952 17.4937969,3.9192381 L17.950875,3.6542381 L17.6522344,3.214 C17.6267344,3.17642857 17.6647031,3.12814286 17.706375,3.145 L18.1953281,3.34280952 L18.3479062,2.83114286 C18.3610781,2.78742857 18.4219687,2.78742857 18.4349531,2.83114286 Z" id="star" fill="#FFFFFF" fill-rule="nonzero" mask="url(#mask-2)"></path>
                        <path d="M6.62067188,0 L6.62067188,3.36290476 L12,3.36290476 L12,4.62395238 L6.62067188,4.62395238 L6.62067188,7.98685714 L5.37932812,7.98685714 L5.37932812,4.62395238 L0,4.62395238 L0,3.36290476 L5.37932812,3.36290476 L5.37932812,0 L6.62067188,0 Z M4.95417188,5.04433333 L0.491859375,7.98685714 L0.4138125,7.98685714 C0.2905875,7.98685714 0.1833825,7.92971429 0.1089255,7.84195505 L0.059484375,7.77080952 L4.19409375,5.04433333 L4.95417188,5.04433333 Z M8.11846875,5.04438095 L11.9934375,7.59952381 C11.9810156,7.75366667 11.8905938,7.88390476 11.7587813,7.94604762 L11.7587813,7.94604762 L7.3584375,5.04438095 L8.11846875,5.04438095 Z M0.684703125,0.39252381 L4.55170312,2.94252381 L3.79167187,2.94252381 L0.385640625,0.69647619 C0.473296875,0.583619048 0.57365625,0.481571429 0.684703125,0.39252381 Z M11.5861875,0 C11.70765,0 11.8132425,0.0557104762 11.887485,0.141360762 L11.9370469,0.210809524 L7.79451563,2.94252381 L7.03448438,2.94252381 L11.4966563,0 L11.5861875,0 Z" id="red" fill="#F44336" fill-rule="nonzero" mask="url(#mask-2)"></path>
                        <rect id="border" stroke-opacity="0.04" stroke="#000000" fill-rule="nonzero" mask="url(#mask-2)" x="0.5" y="0.5" width="23" height="15" rx="1"></rect>
                    </g>
                </g>
            </g>
        </g>
    </g>
</svg>

<svg xmlns="http://www.w3.org/2000/svg" xmlns:xlink="http://www.w3.org/1999/xlink" width="32" height="32"><defs><rect id="a" width="24" height="16" rx="2"/></defs><g fill="none" fill-rule="evenodd"><g transform="translate(4 8)"><mask id="b" fill="#fff"><use xlink:href="#a"/></mask><g mask="url(#b)"><path fill="#0D47A1" fill-rule="nonzero" d="M22.203 0H1.797C.805 0 0 .817 0 1.826v12.322c0 1.008.805 1.826 1.797 1.826h20.406c.992 0 1.797-.818 1.797-1.826V1.826C24 .817 23.195 0 22.203 0z"/><path fill="#FFF" fill-rule="nonzero" d="M.414 7.987h.719l3.833-2.551v2.55h2.069v-2.55l3.832 2.55h.72a.417.417 0 00.413-.42v-.333L8.712 5.044H12V2.943H8.711L12 .753V.42a.417.417 0 00-.414-.42h-.719L7.034 2.551V0H4.965v2.551L1.258.084a1.807 1.807 0 00-1.017.83l3.048 2.029H0v2.101h3.289L0 7.233v.333c0 .233.185.42.414.42zm5.711 2.292l.313 1.047 1-.405c.086-.034.163.065.111.142l-.611.9.936.543c.08.046.052.17-.04.176l-1.075.076.166 1.082c.014.092-.098.147-.16.078l-.729-.806-.729.806c-.062.069-.174.014-.16-.078l.166-1.082-1.075-.076c-.091-.006-.119-.13-.04-.176l.937-.542-.612-.901c-.052-.077.026-.176.111-.142l1 .405.313-1.047a.093.093 0 01.178 0zm12.31-7.448l.153.512.488-.198c.042-.017.08.031.055.069l-.3.44.458.265c.039.023.025.083-.02.086l-.524.037.08.529a.045.045 0 01-.078.038l-.356-.394-.356.394c-.03.034-.085.007-.078-.038l.081-.529-.525-.037c-.045-.003-.058-.063-.02-.086l.458-.265-.299-.44c-.025-.038.013-.086.054-.069l.49.198.152-.512a.045.045 0 01.087 0zM15.033 6.76l.152.511.49-.198c.041-.016.08.032.054.07l-.3.44.458.265c.039.022.025.082-.02.086l-.524.037.08.528a.045.045 0 01-.078.038l-.356-.393-.356.393c-.03.034-.085.007-.078-.038l.081-.528-.525-.037c-.045-.004-.058-.064-.02-.086l.458-.265-.299-.44c-.025-.038.013-.086.054-.07l.49.198.152-.511a.045.045 0 01.087 0zm6.62-1.682l.153.512.49-.198c.04-.017.079.031.053.069l-.298.44.457.265c.039.023.025.083-.02.086l-.525.037.081.529c.007.045-.047.072-.078.038l-.356-.394-.356.394c-.03.033-.085.007-.078-.038l.081-.529-.525-.037c-.045-.003-.058-.063-.02-.086l.458-.265-.299-.44c-.025-.038.013-.086.054-.07l.49.199.152-.512a.045.045 0 01.087 0zm-3.218 6.726l.153.512.488-.198c.042-.017.08.031.055.069l-.3.44.458.265c.039.022.025.083-.02.086l-.524.037.08.528c.008.045-.047.072-.078.039l-.356-.394-.356.394c-.03.033-.085.006-.078-.039l.081-.528-.525-.037c-.045-.003-.058-.064-.02-.086l.458-.265-.299-.44c-.025-.038.013-.086.054-.07l.49.199.152-.512a.045.045 0 01.087 0zm1.18-4.125a.052.052 0 01.1 0l.122.373.387.003c.05 0 .071.065.03.096l-.31.233.116.375c.015.049-.04.09-.08.06l-.315-.23-.315.23c-.04.03-.095-.011-.08-.06l.117-.375-.312-.233c-.04-.03-.02-.095.03-.096l.388-.003.122-.373z"/><path fill="#F44336" fill-rule="nonzero" d="M12 3.363v1.261H6.62v3.363H5.38V4.624H0V3.363h5.38V0h1.24v3.363H12zM.386.696C.473.584.574.482.685.393l3.867 2.55h-.76L.386.696zm7.409 2.247h-.76L11.496 0h.09c.151 0 .278.087.35.21L7.795 2.944zm-3.6 2.101h.76L.491 7.987H.414a.408.408 0 01-.355-.216l4.135-2.727zM11.992 7.6a.416.416 0 01-.234.346l-4.4-2.902h.76L11.992 7.6z"/><rect width="23" height="15" x=".5" y=".5" stroke="#000" stroke-opacity=".04" rx="2"/></g><rect width="23" height="15" x=".5" y=".5" stroke="#000" stroke-opacity=".04" mask="url(#b)" rx="2"/></g><path fill="#494C5A" fill-opacity=".4" fill-rule="nonzero" d="M20.692 3h7.616C29.242 3 30 3.696 30 4.556v3.888c0 .86-.758 1.556-1.692 1.556h-7.616C19.758 10 19 9.304 19 8.444V4.556C19 3.696 19.758 3 20.692 3z"/><path fill="#494C5A" d="M20.692 3.778c-.467 0-.846.348-.846.778v3.888c0 .43.379.778.846.778h7.616c.467 0 .846-.348.846-.778V4.556c0-.43-.379-.778-.846-.778h-7.616z"/><path fill="#FFF" d="M23.284 6.551c0 .224-.044.42-.133.588a.933.933 0 01-.38.39 1.15 1.15 0 01-.568.138c-.21 0-.399-.046-.565-.136a.945.945 0 01-.384-.388 1.211 1.211 0 01-.139-.58v-.111c0-.224.046-.42.136-.59a.94.94 0 01.383-.392c.165-.091.354-.137.566-.137.212 0 .4.046.566.137a.941.941 0 01.383.391c.09.17.135.367.135.59v.1zm-.531-.102c0-.239-.048-.42-.144-.543a.487.487 0 00-.41-.186.487.487 0 00-.407.183c-.095.123-.144.302-.145.538v.11c0 .232.048.412.144.54a.484.484 0 00.412.192.48.48 0 00.406-.185c.095-.123.142-.303.144-.539v-.11zm2.83-.705h-.78v1.891h-.525V5.744h-.77v-.38h2.075v.38zm2.298 1.135a.772.772 0 01-.303.577c-.183.14-.423.21-.722.21-.326 0-.583-.097-.77-.293-.188-.196-.281-.465-.281-.807v-.14c0-.218.043-.41.13-.576a.903.903 0 01.37-.383c.16-.09.346-.134.558-.134.294 0 .53.07.71.21a.83.83 0 01.312.592h-.525c-.013-.147-.059-.253-.137-.319-.08-.066-.199-.099-.36-.099-.175 0-.306.056-.393.168-.086.111-.131.285-.133.52v.171c0 .246.041.425.125.539.083.113.215.17.394.17.162 0 .283-.033.363-.1.08-.066.126-.168.137-.306h.525z"/></g></svg>
